outputs/icons/device/mobile_friendly_round.svg

<svg width="1200" height="1200" viewBox="0 0 1200 1200" fill="none" xmlns="http://www.w3.org/2000/svg"><g clip-path="url(#clip0_231_4430)"><path d="M950.005 50H450.006C395.006 50 350.006 95 350.006 150V250C350.006 277.5 372.506 300 400.006 300C427.506 300 450.006 277.5 450.006 250V200H950.005V1000H450.006V950C450.006 922.5 427.506 900 400.006 900C372.506 900 350.006 922.5 350.006 950V1050C350.006 1105 395.006 1150 450.006 1150H950.005C1005.005 1150 1050.005 1105 1050.005 1050V150C1050.005 95 1005.005 50 950.005 50ZM350.506 673.5L254.506 577.5C237.006 560 208.506 560 191.006 577.5C173.506 595 173.506 623.5 191.006 641L314.506 764.5C334.006 784 365.506 784 385.006 764.5L677.505 472C695.005 454.5 695.005 426 677.505 408.5C660.005 391 631.505 391 614.005 408.5L350.506 673.5Z" fill="#1D1E23"/></g><defs><clipPath id="clip0_231_4430"><path width="24" fill="white" d="M0 0H1200V1200H0V0z"/></clipPath></defs></svg>

<svg xmlns="http://www.w3.org/2000/svg" width="1200" height="1200" fill="none"><g clip-path="url(#a)"><path fill="#000" d="M950.005 50H450.006c-55 0-100 45-100 100v100c0 27.5 22.5 50 50 50s50-22.5 50-50v-50h499.999v800H450.006v-50c0-27.5-22.5-50-50-50s-50 22.5-50 50v100c0 55 45 100 100 100h499.999c55 0 100-45 100-100V150c0-55-45-100-100-100M350.506 673.5l-96-96c-17.5-17.5-46-17.5-63.5 0s-17.5 46 0 63.5l123.5 123.5c19.5 19.5 51 19.5 70.5 0L677.505 472c17.5-17.5 17.5-46 0-63.5s-46-17.5-63.5 0z"/></g><defs><clipPath id="a"><path fill="#fff" d="M0 0h1200v1200H0z"/></clipPath></defs></svg>
